X:57
T:Gallagher's March 1 (j)
B:NFID.085b
057gall_M1
S:JD
L:1/8
M:6/8
R:jig % A(16)-B(8 repeated)-A(16)
Q:320
K:A=G
ed|cBA eAA|fed cBA|def gfg|BcB Bed|
cBA eAA|fed cBA|c2e dB^G|ABA Aed|
cBA eAA|fed cBA|def gfg|BcB Bcd|
e3 ef^g|aed cBA|c2e dB^G|ABA A2||
^g|afa geg|fed cBA|def gfg|BcB B2^g|
afa geg|fed cBA|c2e dB^G|1 ABA A2:|\
[2 ABA Aed||

%%%

